resources/icons/scopy-default/icons/voltmeter.svg

<?xml version="1.0" encoding="UTF-8"?>
<svg width="16px" height="20px" viewBox="0 0 16 20" version="1.1" xmlns="http://www.w3.org/2000/svg" xmlns:xlink="http://www.w3.org/1999/xlink">
    <title>multi</title>
    <g id="multi" stroke="none" stroke-width="1" fill="none" fill-rule="evenodd" fill-opacity="0.400000006">
        <path d="M8,8 C4.6862915,8 2,10.6862915 2,14 C2,17.3137085 4.6862915,20 8,20 C11.3137085,20 14,17.3137085 14,14 C13.997243,10.6874342 11.3125658,8.00275703 8,8 L8,8 Z M8,10 C8.71454579,10.0009648 9.41568795,10.1940379 10.03,10.559 L4.56,16.03 C3.82608888,14.7951285 3.8124339,13.2611164 4.52424609,12.0133759 C5.23605829,10.7656353 6.5635035,9.99669533 8,10 L8,10 Z M8,18 C7.28556119,17.9972709 6.58479033,17.8039548 5.97,17.44 L11.44,11.973 C11.8091273,12.584481 12.0028666,13.2857482 12,14 C12,15.060866 11.5785726,16.0782816 10.8284271,16.8284271 C10.0782816,17.5785726 9.06086596,18 8,18 L8,18 Z M0,0 L0,6 L16,6 L16,0 L0,0 L0,0 Z M14,4 L2,4 L2,2 L14,2 L14,4 L14,4 Z M1,18 C0.44771525,18 0,18.4477153 0,19 C0,19.5522847 0.44771525,20 1,20 C1.55228475,20 2,19.5522847 2,19 C2,18.4477153 1.55228475,18 1,18 L1,18 Z M15,18 C14.4477153,18 14,18.4477153 14,19 C14,19.5522847 14.4477153,20 15,20 C15.5522847,20 16,19.5522847 16,19 C16,18.4477153 15.5522847,18 15,18 L15,18 Z" fill="#FFFFFF"></path>
    </g>
</svg>

<?xml version="1.0" encoding="UTF-8"?>
<svg width="16px" height="20px" version="1.1" viewBox="0 0 16 20" xmlns="http://www.w3.org/2000/svg">
 <g fill="#fff" opacity=".6" fill-rule="evenodd">
  <path d="m8 8c-3.3137 0-6 2.6863-6 6s2.6863 6 6 6 6-2.6863 6-6c-0.002757-3.3126-2.6874-5.9972-6-6zm0 2c0.71455 9.648e-4 1.4157 0.19404 2.03 0.559l-5.47 5.471c-0.73391-1.2349-0.74757-2.7689-0.035754-4.0166 0.71181-1.2477 2.0393-2.0167 3.4758-2.0134zm0 8c-0.71444-0.0027291-1.4152-0.19605-2.03-0.56l5.47-5.467c0.36913 0.61148 0.56287 1.3127 0.56 2.027 0 1.0609-0.42143 2.0783-1.1716 2.8284s-1.7676 1.1716-2.8284 1.1716zm-8-18v6h16v-6h-16zm14 4h-12v-2h12v2zm-13 14c-0.55228 0-1 0.44772-1 1s0.44772 1 1 1 1-0.44772 1-1-0.44772-1-1-1zm14 0c-0.55228 0-1 0.44772-1 1s0.44772 1 1 1 1-0.44772 1-1-0.44772-1-1-1z"/>
 </g>
</svg>
